!!! OTL: Berkowitz167
!!! Chapter: 1
!!! Section: I
!!! Page: 37
!!! Mode: 
!!! Encoder: DJB
**kern
*staff1
*I"Piano
=1-
*clefG2
*k[f#]
*G:
*M3/4
8b\L
8cc\J
4dd\
4gg\
=2
4dd\
4cc\
4b\
=3
4cc\
4a/
4f#/
=4
8g/L
8a/J
4b\
4r
=5
8a/L
8b/J
4cc\
4r
=6
8b\L
8cc\J
4dd\
4r
=7
8ee\L
8dd\J
8cc\L
8b\J
8a/L
8g/J
=8
4dd\
2r
=9
8b\L
8cc\J
4dd\
4gg\
=10
!!linebreak:original
4dd\
4cc\
4b\
=11
4a/
4cc\
4f#/
=12
8g/L
8a/J
8b\L
8cc\J
4dd\
=13
4cc\
4ee\
4cc\
=14
4b\
4dd\
4b\
=15
4a/
4cc\
4f#/
=16
4g/
2r
==
*-
